X: 1
T: Lily The Pict
M: 4/4
L: 1/8
R: reel
K: Emaj
E2EG BEGB|EGBe cBAG|F2FG AFGA|FGAF GAGF|
E2EG BEGB|efge dedc|BcBA GBAG|FEDF E4:|
edef gfde|cecB ABAG|F2FG AFGA|FGAF GAGF|
E2ef gfde|cecB AGFA|BcBA GBAG|FEDF E4|
edef gfde|cecB ABAG|F2FG AFGA|FGAF GAGF|
E2EG BEGB|efge dedc|BcBA GBAG|FEDF E4||
